src/assets/images/home/dotImg.svg

<svg width="65" height="62" viewBox="0 0 65 62" fill="none" xmlns="http://www.w3.org/2000/svg">
<path d="M62.3016 4.74862C60.9248 4.74862 59.8031 3.68261 59.8031 2.37431C59.8031 1.06602 60.9248 0 62.3016 0C63.6783 0 64.8001 1.06602 64.8001 2.37431C64.8001 3.69068 63.6783 4.74862 62.3016 4.74862ZM64.8001 16.5798C64.8001 15.2715 63.6783 14.2055 62.3016 14.2055C60.9248 14.2055 59.8031 15.2715 59.8031 16.5798C59.8031 17.8881 60.9248 18.9541 62.3016 18.9541C63.6783 18.9541 64.8001 17.8962 64.8001 16.5798ZM64.8001 30.7853C64.8001 29.477 63.6783 28.411 62.3016 28.411C60.9248 28.411 59.8031 29.477 59.8031 30.7853C59.8031 32.0936 60.9248 33.1596 62.3016 33.1596C63.6783 33.1677 64.8001 32.1017 64.8001 30.7853ZM64.8001 44.9989C64.8001 43.6906 63.6783 42.6246 62.3016 42.6246C60.9248 42.6246 59.8031 43.6906 59.8031 44.9989C59.8031 46.3072 60.9248 47.3732 62.3016 47.3732C63.6783 47.3732 64.8001 46.3072 64.8001 44.9989ZM64.8001 59.2044C64.8001 57.8961 63.6783 56.8301 62.3016 56.8301C60.9248 56.8301 59.8031 57.8961 59.8031 59.2044C59.8031 60.5127 60.9248 61.5787 62.3016 61.5787C63.6783 61.5787 64.8001 60.5127 64.8001 59.2044ZM49.8514 2.37431C49.8514 1.06602 48.7297 0 47.3529 0C45.9762 0 44.8544 1.06602 44.8544 2.37431C44.8544 3.68261 45.9762 4.74862 47.3529 4.74862C48.7297 4.74862 49.8514 3.69068 49.8514 2.37431ZM49.8514 16.5798C49.8514 15.2715 48.7297 14.2055 47.3529 14.2055C45.9762 14.2055 44.8544 15.2715 44.8544 16.5798C44.8544 17.8881 45.9762 18.9541 47.3529 18.9541C48.7297 18.9541 49.8514 17.8962 49.8514 16.5798ZM49.8514 30.7853C49.8514 29.477 48.7297 28.411 47.3529 28.411C45.9762 28.411 44.8544 29.477 44.8544 30.7853C44.8544 32.0936 45.9762 33.1596 47.3529 33.1596C48.7297 33.1677 49.8514 32.1017 49.8514 30.7853ZM49.8514 44.9989C49.8514 43.6906 48.7297 42.6246 47.3529 42.6246C45.9762 42.6246 44.8544 43.6906 44.8544 44.9989C44.8544 46.3072 45.9762 47.3732 47.3529 47.3732C48.7297 47.3732 49.8514 46.3072 49.8514 44.9989ZM49.8514 59.2044C49.8514 57.8961 48.7297 56.8301 47.3529 56.8301C45.9762 56.8301 44.8544 57.8961 44.8544 59.2044C44.8544 60.5127 45.9762 61.5787 47.3529 61.5787C48.7297 61.5787 49.8514 60.5127 49.8514 59.2044ZM34.8943 2.37431C34.8943 1.06602 33.7725 0 32.3958 0C31.0191 0 29.8973 1.06602 29.8973 2.37431C29.8973 3.68261 31.0191 4.74862 32.3958 4.74862C33.781 4.74862 34.8943 3.69068 34.8943 2.37431ZM34.8943 16.5798C34.8943 15.2715 33.7725 14.2055 32.3958 14.2055C31.0191 14.2055 29.8973 15.2715 29.8973 16.5798C29.8973 17.8881 31.0191 18.9541 32.3958 18.9541C33.781 18.9541 34.8943 17.8962 34.8943 16.5798ZM34.8943 30.7853C34.8943 29.477 33.7725 28.411 32.3958 28.411C31.0191 28.411 29.8973 29.477 29.8973 30.7853C29.8973 32.0936 31.0191 33.1596 32.3958 33.1596C33.781 33.1677 34.8943 32.1017 34.8943 30.7853ZM34.8943 44.9989C34.8943 43.6906 33.7725 42.6246 32.3958 42.6246C31.0191 42.6246 29.8973 43.6906 29.8973 44.9989C29.8973 46.3072 31.0191 47.3732 32.3958 47.3732C33.781 47.3732 34.8943 46.3072 34.8943 44.9989ZM34.8943 59.2044C34.8943 57.8961 33.7725 56.8301 32.3958 56.8301C31.0191 56.8301 29.8973 57.8961 29.8973 59.2044C29.8973 60.5127 31.0191 61.5787 32.3958 61.5787C33.781 61.5787 34.8943 60.5127 34.8943 59.2044ZM19.9457 2.37431C19.9457 1.06602 18.8239 0 17.4471 0C16.0704 0 14.9487 1.06602 14.9487 2.37431C14.9487 3.68261 16.0704 4.74862 17.4471 4.74862C18.8324 4.74862 19.9457 3.69068 19.9457 2.37431ZM19.9457 16.5798C19.9457 15.2715 18.8239 14.2055 17.4471 14.2055C16.0704 14.2055 14.9487 15.2715 14.9487 16.5798C14.9487 17.8881 16.0704 18.9541 17.4471 18.9541C18.8324 18.9541 19.9457 17.8962 19.9457 16.5798ZM19.9457 30.7853C19.9457 29.477 18.8239 28.411 17.4471 28.411C16.0704 28.411 14.9487 29.477 14.9487 30.7853C14.9487 32.0936 16.0704 33.1596 17.4471 33.1596C18.8324 33.1677 19.9457 32.1017 19.9457 30.7853ZM19.9457 44.9989C19.9457 43.6906 18.8239 42.6246 17.4471 42.6246C16.0704 42.6246 14.9487 43.6906 14.9487 44.9989C14.9487 46.3072 16.0704 47.3732 17.4471 47.3732C18.8324 47.3732 19.9457 46.3072 19.9457 44.9989ZM19.9457 59.2044C19.9457 57.8961 18.8239 56.8301 17.4471 56.8301C16.0704 56.8301 14.9487 57.8961 14.9487 59.2044C14.9487 60.5127 16.0704 61.5787 17.4471 61.5787C18.8324 61.5787 19.9457 60.5127 19.9457 59.2044ZM4.99705 2.37431C4.99705 1.06602 3.87526 0 2.49852 0C1.12179 0 0 1.06602 0 2.37431C0 3.68261 1.12179 4.74862 2.49852 4.74862C3.87526 4.74862 4.99705 3.69068 4.99705 2.37431ZM4.99705 16.5798C4.99705 15.2715 3.87526 14.2055 2.49852 14.2055C1.12179 14.2055 0 15.2715 0 16.5798C0 17.8881 1.12179 18.9541 2.49852 18.9541C3.87526 18.9541 4.99705 17.8962 4.99705 16.5798ZM4.99705 30.7853C4.99705 29.477 3.87526 28.411 2.49852 28.411C1.12179 28.411 0 29.477 0 30.7853C0 32.0936 1.12179 33.1596 2.49852 33.1596C3.87526 33.1596 4.99705 32.1017 4.99705 30.7853ZM4.99705 44.9989C4.99705 43.6906 3.87526 42.6246 2.49852 42.6246C1.12179 42.6246 0 43.6906 0 44.9989C0 46.3072 1.12179 47.3732 2.49852 47.3732C3.87526 47.3732 4.99705 46.3072 4.99705 44.9989ZM4.99705 59.2044C4.99705 57.8961 3.87526 56.8301 2.49852 56.8301C1.12179 56.8301 0 57.8961 0 59.2044C0 60.5127 1.12179 61.5787 2.49852 61.5787C3.87526 61.5787 4.99705 60.5127 4.99705 59.2044Z" fill="url(#paint0_linear_3087_10847)"/>
<defs>
<linearGradient id="paint0_linear_3087_10847" x1="0" y1="0" x2="65" y2="62" gradientUnits="userSpaceOnUse">
<stop stop-color="#1C98CB"/>
<stop offset="1" stop-color="#1B1464"/>
</linearGradient>
</defs>
</svg>

<svg xmlns="http://www.w3.org/2000/svg" width="65" height="62" fill="none"><path fill="url(#a)" d="M62.302 4.749c-1.377 0-2.499-1.066-2.499-2.375S60.925 0 62.302 0C63.678 0 64.8 1.066 64.8 2.374c0 1.317-1.122 2.375-2.498 2.375m2.498 11.83c0-1.308-1.122-2.373-2.498-2.373s-2.499 1.066-2.499 2.374 1.122 2.374 2.499 2.374c1.376 0 2.498-1.058 2.498-2.374m0 14.206c0-1.308-1.122-2.374-2.498-2.374s-2.499 1.066-2.499 2.374 1.122 2.375 2.499 2.375c1.376.008 2.498-1.058 2.498-2.375M64.8 45c0-1.308-1.122-2.374-2.498-2.374s-2.499 1.066-2.499 2.374 1.122 2.374 2.499 2.374c1.376 0 2.498-1.066 2.498-2.374m0 14.205c0-1.308-1.122-2.374-2.498-2.374s-2.499 1.066-2.499 2.374 1.122 2.375 2.499 2.375c1.376 0 2.498-1.066 2.498-2.375M49.851 2.374C49.851 1.066 48.73 0 47.353 0s-2.499 1.066-2.499 2.374 1.122 2.375 2.499 2.375S49.85 3.69 49.85 2.374m0 14.206c0-1.308-1.121-2.374-2.498-2.374s-2.499 1.066-2.499 2.374 1.122 2.374 2.499 2.374 2.498-1.058 2.498-2.374m0 14.205c0-1.308-1.121-2.374-2.498-2.374s-2.499 1.066-2.499 2.374 1.122 2.375 2.499 2.375c1.377.008 2.498-1.058 2.498-2.375m0 14.214c0-1.308-1.121-2.374-2.498-2.374s-2.499 1.066-2.499 2.374 1.122 2.374 2.499 2.374S49.85 46.307 49.85 45m0 14.205c0-1.308-1.121-2.374-2.498-2.374s-2.499 1.066-2.499 2.374 1.122 2.375 2.499 2.375 2.498-1.066 2.498-2.375M34.894 2.374C34.894 1.066 33.773 0 32.396 0s-2.499 1.066-2.499 2.374S31.02 4.75 32.396 4.75c1.385 0 2.498-1.058 2.498-2.375m0 14.206c0-1.308-1.121-2.374-2.498-2.374s-2.499 1.066-2.499 2.374 1.122 2.374 2.499 2.374c1.385 0 2.498-1.058 2.498-2.374m0 14.205c0-1.308-1.121-2.374-2.498-2.374s-2.499 1.066-2.499 2.374 1.122 2.375 2.499 2.375c1.385.008 2.498-1.058 2.498-2.375m0 14.214c0-1.308-1.121-2.374-2.498-2.374s-2.499 1.066-2.499 2.374 1.122 2.374 2.499 2.374c1.385 0 2.498-1.066 2.498-2.374m0 14.205c0-1.308-1.121-2.374-2.498-2.374s-2.499 1.066-2.499 2.374 1.122 2.375 2.499 2.375c1.385 0 2.498-1.066 2.498-2.375M19.946 2.374C19.946 1.066 18.824 0 17.447 0S14.95 1.066 14.95 2.374 16.07 4.75 17.447 4.75c1.385 0 2.499-1.058 2.499-2.375m0 14.206c0-1.308-1.122-2.374-2.499-2.374s-2.498 1.066-2.498 2.374 1.121 2.374 2.498 2.374c1.385 0 2.499-1.058 2.499-2.374m0 14.205c0-1.308-1.122-2.374-2.499-2.374s-2.498 1.066-2.498 2.374 1.121 2.375 2.498 2.375c1.385.008 2.499-1.058 2.499-2.375m0 14.214c0-1.308-1.122-2.374-2.499-2.374s-2.498 1.066-2.498 2.374 1.121 2.374 2.498 2.374c1.385 0 2.499-1.066 2.499-2.374m0 14.205c0-1.308-1.122-2.374-2.499-2.374s-2.498 1.066-2.498 2.374 1.121 2.375 2.498 2.375c1.385 0 2.499-1.066 2.499-2.375M4.997 2.374C4.997 1.066 3.875 0 2.499 0S0 1.066 0 2.374 1.122 4.75 2.499 4.75c1.376 0 2.498-1.058 2.498-2.375m0 14.206c0-1.308-1.122-2.374-2.498-2.374S0 15.272 0 16.58s1.122 2.374 2.499 2.374c1.376 0 2.498-1.058 2.498-2.374m0 14.205c0-1.308-1.122-2.374-2.498-2.374S0 29.477 0 30.785s1.122 2.375 2.499 2.375c1.376 0 2.498-1.058 2.498-2.375m0 14.214c0-1.308-1.122-2.374-2.498-2.374S0 43.69 0 44.999s1.122 2.374 2.499 2.374c1.376 0 2.498-1.066 2.498-2.374m0 14.205c0-1.308-1.122-2.374-2.498-2.374S0 57.896 0 59.204s1.122 2.375 2.499 2.375c1.376 0 2.498-1.066 2.498-2.375"/><defs><linearGradient id="a" x1="0" x2="65" y1="0" y2="62" gradientUnits="userSpaceOnUse"><stop stop-color="#1C98CB"/><stop offset="1" stop-color="#1B1464"/></linearGradient></defs></svg>
